X: 42661
T: Whistle Man
R: jig
M: 6/8
K: Gmajor
|:BAG BGd|BAG AB/^c/d|edg ged|BAG EDE|
BAG BGd|BAG AB/^c/d|e2 g edB|AGF G2 A:|
|:BAG B2 G-|GAB BAG|AB/c/d edg|edB AGE|
BAG B2 G-|GAB BAG|e2 g edB|AGF G2 A:|

